src/images/icons/icon-apple.svg

<svg width="56" height="64" viewBox="0 0 56 64" fill="none" xmlns="http://www.w3.org/2000/svg">
<path fill-rule="evenodd" clip-rule="evenodd" d="M43.9715 15.7798C38.8384 14.4824 33.4007 15.7266 30.4405 18.8745C30.2858 19.0386 30.116 19.1855 29.9335 19.314C30.5914 12.6899 36.1765 7.5 42.9468 7.5C43.9788 7.5 44.8152 6.66064 44.8152 5.625C44.8152 4.58936 43.9788 3.75 42.9468 3.75C37.5043 3.75 32.6582 6.35889 29.5832 10.3955C28.3279 4.46387 23.0688 0 16.7899 0H9.31645C8.28447 0 7.44809 0.839355 7.44809 1.875C7.44809 9.1123 13.3149 14.9985 20.5266 14.9985H27.0936C26.6026 16.3872 26.2878 17.8599 26.1769 19.3872C25.9521 19.2417 25.7429 19.0698 25.557 18.8721C22.4412 15.5605 17.3689 14.2656 12.319 15.4937C6.90072 16.811 2.75142 20.7729 1.22024 26.0918C-0.133828 30.7939 -0.373211 36.5464 0.5634 41.8745C1.57397 47.6274 3.8155 53.0566 6.87542 57.1631C10.1606 61.5718 14.0793 64 17.9084 64C19.4425 64 20.9158 63.6226 22.2864 62.8784C24.055 61.917 26.0309 61.4092 28 61.4092C29.9686 61.4092 31.9459 61.9175 33.714 62.877C35.0798 63.6221 36.5526 64 38.0915 64C41.9212 64 45.8394 61.5718 49.1251 57.1626C52.1845 53.0566 54.4265 47.6265 55.4366 41.873C56.3396 36.7373 56.1504 31.1567 54.9174 26.562C53.451 21.0972 49.4617 17.167 43.9715 15.7798ZM20.5266 11.25C16.0153 11.25 12.2406 8.02393 11.3726 3.75H16.7899C21.3012 3.75 25.0758 6.97607 25.9438 11.25H20.5266ZM46.1323 54.917C48.8482 51.272 50.846 46.4082 51.7568 41.2217C52.5562 36.6753 52.3888 31.5596 51.3092 27.5371C49.7975 21.9033 45.491 20.0312 43.0587 19.4165C39.2578 18.4561 35.1864 19.2915 33.1579 21.4487C31.8262 22.8647 29.9467 23.6772 28.001 23.6777H28H27.9971C26.0533 23.6768 24.1738 22.8638 22.8401 21.4468C20.6759 19.1465 16.892 18.2402 13.1991 19.1382C9.03911 20.1499 5.98163 23.0635 4.81001 27.1328C3.62672 31.2427 3.41459 36.5098 4.24318 41.2231C5.15401 46.4092 7.1513 51.2725 9.86771 54.917C12.3934 58.3062 15.3239 60.25 17.9084 60.25C18.8149 60.25 19.6897 60.0249 20.5081 59.5806C22.8207 58.3237 25.4115 57.6592 28 57.6592C30.587 57.6592 33.1784 58.3232 35.4953 59.5801C36.3113 60.0254 37.1832 60.25 38.0915 60.25C40.6761 60.25 43.6066 58.3062 46.1323 54.917Z" fill="#EF633E"/>
</svg>

<svg width="56" height="64" fill="none" xmlns="http://www.w3.org/2000/svg"><path fill-rule="evenodd" clip-rule="evenodd" d="M43.971 15.78c-5.133-1.298-10.57-.053-13.53 3.095a3.335 3.335 0 01-.508.439C30.591 12.69 36.176 7.5 42.947 7.5c1.032 0 1.868-.84 1.868-1.875a1.872 1.872 0 00-1.868-1.875c-5.443 0-10.289 2.609-13.364 6.646C28.328 4.463 23.07 0 16.79 0H9.316C8.284 0 7.448.84 7.448 1.875c0 7.237 5.867 13.123 13.079 13.123h6.567a16.807 16.807 0 00-.917 4.39 3.343 3.343 0 01-.62-.516c-3.116-3.312-8.188-4.606-13.238-3.378C6.901 16.81 2.751 20.773 1.22 26.092-.134 30.794-.373 36.546.563 41.874c1.011 5.753 3.252 11.183 6.312 15.29C10.161 61.571 14.08 64 17.908 64a9.083 9.083 0 004.378-1.122A12.009 12.009 0 0128 61.41c1.969 0 3.946.508 5.714 1.468A9.045 9.045 0 0038.092 64c3.83 0 7.747-2.428 11.033-6.837 3.06-4.106 5.301-9.536 6.312-15.29.903-5.136.713-10.716-.52-15.311-1.466-5.465-5.455-9.395-10.946-10.782zm-23.444-4.53c-4.512 0-8.286-3.226-9.154-7.5h5.417c4.511 0 8.286 3.226 9.154 7.5h-5.417zm25.605 43.667c2.716-3.645 4.714-8.509 5.625-13.695.8-4.547.632-9.662-.448-13.685-1.511-5.634-5.818-7.506-8.25-8.12-3.801-.96-7.873-.126-9.901 2.032A7.108 7.108 0 0128 23.678h-.004a7.114 7.114 0 01-5.157-2.231c-2.164-2.3-5.948-3.207-9.64-2.309-4.16 1.012-7.218 3.925-8.39 7.995-1.183 4.11-1.395 9.377-.567 14.09.911 5.186 2.908 10.05 5.625 13.694 2.525 3.39 5.456 5.333 8.04 5.333.907 0 1.782-.225 2.6-.67A15.746 15.746 0 0128 57.66c2.587 0 5.178.663 7.495 1.92a5.36 5.36 0 002.597.67c2.584 0 5.515-1.944 8.04-5.333z" fill="#EF633E"/></svg>
